icons/wounded.svg

<svg id="icon" style="touch-action: none;" clip-rule="evenodd" fill-rule="evenodd" stroke-linejoin="round" stroke-miterlimit="2" viewBox="0 0 500 500" xmlns="http://www.w3.org/2000/svg" xmlns:xlink="http://www.w3.org/1999/xlink"><clipPath id="a"><path clip-rule="evenodd" d="m0 0h512v512h-512z"/></clipPath><g clip-path="url(#a)" transform="matrix(.97721 0 0 .97721 -.16576 -.16576)"><path d="m57 389.322 434-426.297s-49.638 81.943-91.428 126.197c-3.689 3.907-9.569 47.396-9.094 66.066.672 26.438 18.527 69.89-10.774 69.89s-14.29-47.109-13.418-59.969c.982-14.475 3.074-25.621-7.403-25.1-11.523.574-1.538 31.667-19.534 32.333-14.693.543-18.079 79.097-18.41 104.36-.485 37.044 20.979 95.373-8.113 95.373s-8.341-50.011-8.449-86.214c-.075-25.076-2.013-71.321-12.271-71.437-10.259-.116-14.559 38.245-26.58 36.684-2.746-.356-3.764 9.73-3.546 28.562.265 22.872 8.56 48.247-8.429 48.247-16.99 0-7.408-19.683-7.086-50.103.202-19.161-2.566-20.074-5.086-20.592-6.893-1.416-6.253 28.228-19.05 28.639-11.322.363-13.243-4.891-22.075 3.609-5.42 5.215-4.821 44.494-22.887 44.732-11.637.153-16.713-17.174-38.992 5.768-25.746 26.512-81.375 49.252-81.375 49.252z" transform="matrix(1.17972 0 0 1.20104 -67.2442 44.409)"/><path d="m57 395.5 434-426.297s-49.638 67.439-91.428 111.692c-3.689 3.908-9.569 47.397-9.094 66.067.672 26.438 18.527 69.89-10.774 69.89s-14.29-47.109-13.418-59.969c.982-14.476 3.074-25.621-7.403-25.1-11.523.574-1.538 31.667-19.534 32.333-14.693.543-18.079 79.097-18.41 104.36-.485 37.044 20.979 95.373-8.113 95.373s-8.341-50.011-8.449-86.214c-.075-25.076-2.013-71.321-12.271-71.437-10.259-.116-14.559 38.244-26.58 36.684-2.746-.356-3.764 9.73-3.546 28.562.265 22.872 8.56 48.247-8.429 48.247-16.99 0-7.408-19.683-7.086-50.103.202-19.161-2.566-20.074-5.086-20.592-6.893-1.416-6.253 28.228-19.05 28.639-11.322.363-13.243-4.892-22.075 3.608-5.42 5.216-4.821 44.495-22.887 44.733-11.637.153-16.713-17.174-38.992 5.768-25.746 26.512-81.375 63.756-81.375 63.756z" fill="#f00" transform="matrix(1.17972 0 0 1.20104 -67.2442 36.9889)"/></g></svg>

<?xml version="1.0" encoding="UTF-8" standalone="no"?>
<!DOCTYPE svg PUBLIC "-//W3C//DTD SVG 1.1//EN" "http://www.w3.org/Graphics/SVG/1.1/DTD/svg11.dtd">
<svg width="100%" height="100%" viewBox="0 0 500 500" version="1.1" xmlns="http://www.w3.org/2000/svg" xmlns:xlink="http://www.w3.org/1999/xlink" xml:space="preserve" xmlns:serif="http://www.serif.com/" style="fill-rule:evenodd;clip-rule:evenodd;stroke-linejoin:round;stroke-miterlimit:2;">
    <g transform="matrix(0.97721,0,0,0.97721,250,250)">
        <g transform="matrix(1,0,0,1,-256,-256)">
            <clipPath id="_clip1">
                <rect x="0" y="0" width="512" height="512"/>
            </clipPath>
            <g clip-path="url(#_clip1)">
                <g transform="matrix(1.17972,0,0,1.20104,-67.2442,44.409)">
                    <path d="M57,389.322L491,-36.975C491,-36.975 441.362,44.968 399.572,89.222C395.883,93.129 390.003,136.618 390.478,155.288C391.15,181.726 409.005,225.178 379.704,225.178C350.403,225.178 365.414,178.069 366.286,165.209C367.268,150.734 369.36,139.588 358.883,140.109C347.36,140.683 357.345,171.776 339.349,172.442C324.656,172.985 321.27,251.539 320.939,276.802C320.454,313.846 341.918,372.175 312.826,372.175C283.734,372.175 304.485,322.164 304.377,285.961C304.302,260.885 302.364,214.64 292.106,214.524C281.847,214.408 277.547,252.769 265.526,251.208C262.78,250.852 261.762,260.938 261.98,279.77C262.245,302.642 270.54,328.017 253.551,328.017C236.561,328.017 246.143,308.334 246.465,277.914C246.667,258.753 243.899,257.84 241.379,257.322C234.486,255.906 235.126,285.55 222.329,285.961C211.007,286.324 209.086,281.07 200.254,289.57C194.834,294.785 195.433,334.064 177.367,334.302C165.73,334.455 160.654,317.128 138.375,340.07C112.629,366.582 57,389.322 57,389.322Z"/>
                </g>
                <g transform="matrix(1.17972,0,0,1.20104,-67.2442,36.9889)">
                    <path d="M57,395.5L491,-30.797C491,-30.797 441.362,36.642 399.572,80.895C395.883,84.803 390.003,128.292 390.478,146.962C391.15,173.4 409.005,216.852 379.704,216.852C350.403,216.852 365.414,169.743 366.286,156.883C367.268,142.407 369.36,131.262 358.883,131.783C347.36,132.357 357.345,163.45 339.349,164.116C324.656,164.659 321.27,243.213 320.939,268.476C320.454,305.52 341.918,363.849 312.826,363.849C283.734,363.849 304.485,313.838 304.377,277.635C304.302,252.559 302.364,206.314 292.106,206.198C281.847,206.082 277.547,244.442 265.526,242.882C262.78,242.526 261.762,252.612 261.98,271.444C262.245,294.316 270.54,319.691 253.551,319.691C236.561,319.691 246.143,300.008 246.465,269.588C246.667,250.427 243.899,249.514 241.379,248.996C234.486,247.58 235.126,277.224 222.329,277.635C211.007,277.998 209.086,272.743 200.254,281.243C194.834,286.459 195.433,325.738 177.367,325.976C165.73,326.129 160.654,308.802 138.375,331.744C112.629,358.256 57,395.5 57,395.5Z" style="fill:rgb(255,0,0);"/>
                </g>
            </g>
        </g>
    </g>
</svg>
